X:1765
T:Whitney's Fancy
M:C|
L:1/8
N:"collected by F. O'Neill"
B:O'Neill's 1765
R:Hornpipe
Z:"Transcribed by Bob Safranek, rjs@gsp.org"
K:G
   d2 | g3 a g>fe>d | e>dB>G A>GE>F | G>FG>A  B>AB>d  | e>d(^c>e) d2 ((3def) |
        g3 a g>fe>d | e>dg>e d>BA>B | G>AG>E D>CB,>A, | B,2  G,2   G,2       :|
|: D2 | G>AB>A G>A TB2 | A>Bc>B A>B c2 | d>ef>e d>cB>A | G>AB>c Td2 D2 |
        G>AB>A G>A TB2 | A>Bc>B A>B c2 | d>ef>e d>cA>F | G2 G2 G2     :|


